lib/aplayer/src/assets/menu.svg

<svg xmlns="http://www.w3.org/2000/svg" version="1.1" viewBox="0 0 22 32">
    <path d="M20.8 14.4q0.704 0 1.152 0.48t0.448 1.12-0.48 1.12-1.12 0.48h-19.2q-0.64 0-1.12-0.48t-0.48-1.12 0.448-1.12 1.152-0.48h19.2zM1.6 11.2q-0.64 0-1.12-0.48t-0.48-1.12 0.448-1.12 1.152-0.48h19.2q0.704 0 1.152 0.48t0.448 1.12-0.48 1.12-1.12 0.48h-19.2zM20.8 20.8q0.704 0 1.152 0.48t0.448 1.12-0.48 1.12-1.12 0.48h-19.2q-0.64 0-1.12-0.48t-0.48-1.12 0.448-1.12 1.152-0.48h19.2z"></path>
</svg>

<svg xmlns="http://www.w3.org/2000/svg" viewBox="0 0 22 32"><path d="M20.8 14.4q.704 0 1.152.48T22.4 16t-.48 1.12-1.12.48H1.6q-.64 0-1.12-.48T0 16t.448-1.12T1.6 14.4h19.2zM1.6 11.2q-.64 0-1.12-.48T0 9.6t.448-1.12T1.6 8h19.2q.704 0 1.152.48T22.4 9.6t-.48 1.12-1.12.48H1.6zm19.2 9.6q.704 0 1.152.48t.448 1.12-.48 1.12-1.12.48H1.6q-.64 0-1.12-.48T0 22.4t.448-1.12T1.6 20.8h19.2z"/></svg>
